X: 3547
T: Big John's Hard
R: jig
M: 6/8
K: Gmajor
E|:DEG GAB|ded dBG|B2A AGA|BGG G2 A|
B2A ABd|ede ged|B2A AGA|BGG GFE:|
DEG GAB|ded dBG|(3Bdef g2e|faf g2e|
def g2e|fga bge|ebb eaa|g3 ged|
eAA ABd|ede ged|def g2e|faf g2e|
def g2e|fga bge|ebb eaa|g3 ged|
eAA ABd|ede ged|B2A AGA|BGG G2A|
B2A ABd|ede ged|B2A AGA|BGG G2||

